X:1
T:Title
%%score { ( 1 3 ) | ( 2 4 ) }
L:1/8
M:3/4
K:D
V:1 treble nm="Grand Piano"
V:3 treble 
V:2 bass 
V:4 bass 
V:1
 z2 z2[Q:1/4=100] [FA]2 | [=F^G]>[^FA] [Fd]2 F2 | =F>^F [FA]2 D2 | EF G[GB] [Ge][Gd] | %4
[M:2/4] d2 c2 |[M:1/4] BA |[M:3/4] [=F^G]>[^FA] [Fd]2 F2 | =F>^F [FA]2 [Fd]2 | cE F^G c>B | %9
[M:2/4] [A,CA]4 |[M:1/4] A2 |[M:3/4] c>d e2 c2 | [Fd]>[GB] [FA]2 [FA]2 | BB BB DE | F6 | %15
[M:1/4] [GA]2 |[M:3/4] [Fd]>[Fc] [Fe]2 [Fd]2 |[M:7/8] c>B d3 d2 |[M:3/4] dF G^G A[=Ge] | %19
[M:2/4] [Fd]4 |] %20
V:2
 z2 z2 [D,D]2 | [D,D]>[D,D] [D,A,]2 [D,A,D]2 | [D,^G,D]>[D,A,D] [D,D]2 [F,A,]2 | %3
 [G,B,D][F,B,D] [E,B,D][D,B,] [C,A,][B,,B,] |[M:2/4] A,,4 |[M:1/4][K:treble] [A,G]-[A,CG] | %6
[M:3/4][K:bass] [D,D]>[D,D] [D,A,]2 [D,A,D]2 | [D,^G,D]>[D,A,D] [D,D]2 [B,,A,]2 | %8
 [E,A,E][E,C] [E,=C^D][E,B,=D] [E,^G,E]>[E,G,D] |[M:2/4] A,,4 |[M:1/4] A,2 | %11
[M:3/4][K:treble] [A,EG]>[A,DG] [A,CG]2 [A,EG]2 | [D,D]>[D,D] [D,D]2 [D,D]2 | %13
 [G,DG][G,DG] [G,DG][G,DG] [G,B,][K:bass][G,B,] | [F,^A,C]6 |[M:1/4] [E,C]2 | %16
[M:3/4] [D,D]>[D,A,] [D,A,]2 [D,D]2 |[M:7/8][K:treble] [G,DG]>[G,DG] [G,B,G]3 [G,^A,E]2 | %18
[M:3/4] [A,F][K:bass]F, G,^G, A,[A,,A,] |[M:2/4] [D,A,]4 |] %20
V:3
 x6 | x6 | x6 | x6 |[M:2/4] [EG]4 |[M:1/4] x2 |[M:3/4] x6 | x6 | x6 |[M:2/4] x4 |[M:1/4] x2 | %11
[M:3/4] x6 | x6 | x6 | x6 |[M:1/4] x2 |[M:3/4] x6 |[M:7/8] x7 |[M:3/4] x6 |[M:2/4] x4 |] %20
V:4
 x6 | x6 | x6 | x6 |[M:2/4] x4 |[M:1/4][K:treble] D z |[M:3/4][K:bass] x6 | x6 | x6 |[M:2/4] x4 | %10
[M:1/4] x2 |[M:3/4][K:treble] x6 | x6 | x5[K:bass] x | x6 |[M:1/4] x2 |[M:3/4] x6 | %17
[M:7/8][K:treble] x7 |[M:3/4] x[K:bass] x5 |[M:2/4] x4 |] %20

